svg/fluentui-system-icons/ic_fluent_guardian_24_filled.svg

<svg width="24" height="24" viewBox="0 0 24 24" fill="none" xmlns="http://www.w3.org/2000/svg">
<path d="M10.5 5C10.5 6.65685 9.15685 8 7.5 8C5.84315 8 4.5 6.65685 4.5 5C4.5 3.34315 5.84315 2 7.5 2C9.15685 2 10.5 3.34315 10.5 5ZM16.5 10C17.8807 10 19 8.88071 19 7.5C19 6.11929 17.8807 5 16.5 5C15.1193 5 14 6.11929 14 7.5C14 8.88071 15.1193 10 16.5 10ZM13.3965 10.75C13.4639 10.9884 13.5 11.24 13.5 11.5V14.5C13.5 14.6726 13.4781 14.8402 13.437 15C13.215 15.8626 12.4319 16.5 11.5 16.5C11.3274 16.5 11.1598 16.4781 11 16.437V20C11 21.1046 10.1046 22 9 22C8.52703 22 8.0924 21.8358 7.75 21.5613C7.4076 21.8358 6.97297 22 6.5 22C5.39543 22 4.5 21.1046 4.5 20V16.437C4.34019 16.4781 4.17265 16.5 4 16.5C2.89543 16.5 2 15.6046 2 14.5V11.5C2 9.98122 3.23122 8.75 4.75 8.75H10.75C12.0088 8.75 13.07 9.59575 13.3965 10.75ZM14.425 10.75H19.75C21.2688 10.75 22.5 11.9812 22.5 13.5V15.25C22.5 16.3546 21.6046 17.25 20.5 17.25C20.3274 17.25 20.1598 17.2281 20 17.187V20C20 21.1046 19.1046 22 18 22C17.527 22 17.0924 21.8358 16.75 21.5613C16.4076 21.8358 15.973 22 15.5 22C14.3954 22 13.5 21.1046 13.5 20V16.7361C14.1137 16.1868 14.5 15.3885 14.5 14.5V11.5C14.5 11.2432 14.4742 10.9923 14.425 10.75Z" fill="#212121"/>
</svg>

<svg xmlns="http://www.w3.org/2000/svg" width="24" height="24"><path d="M10.5 5a3 3 0 1 1-6 0 3 3 0 0 1 6 0Zm6 5a2.5 2.5 0 1 0 0-5 2.5 2.5 0 0 0 0 5Zm-3.104.75c.068.238.104.49.104.75v3a2 2 0 0 1-2.5 1.937V20a2 2 0 0 1-3.25 1.561A2 2 0 0 1 4.5 20v-3.563A2 2 0 0 1 2 14.5v-3a2.75 2.75 0 0 1 2.75-2.75h6a2.75 2.75 0 0 1 2.646 2Zm1.029 0h5.325a2.75 2.75 0 0 1 2.75 2.75v1.75a2 2 0 0 1-2.5 1.937V20a2 2 0 0 1-3.25 1.561A2 2 0 0 1 13.5 20v-3.264c.614-.55 1-1.348 1-2.236v-3c0-.257-.026-.508-.075-.75Z"/></svg>
